static/logos/canny-glyph-color.svg

<svg width="35" height="50" viewBox="0 0 35 50" fill="none" xmlns="http://www.w3.org/2000/svg">
<g clip-path="url(#clip0_1_3295)">
<path d="M17.594 50C7.9232 50 0 42.1473 0 32.5V17.5C0 7.85267 7.9232 0 17.594 0C26.1834 0 33.4875 6.13636 34.906 14.5846C35.1332 15.9483 34.232 17.2335 32.8683 17.4687C31.5047 17.6959 30.2273 16.779 29.9922 15.4154C28.9734 9.38088 23.8323 5 17.6881 5C10.7759 5 5.20376 10.6113 5.20376 17.5V32.5C5.20376 39.3966 10.7759 45 17.6881 45C23.8244 45 28.989 40.6191 30 34.5846C30.2273 33.221 31.5125 32.3041 32.8683 32.5313C34.232 32.7586 35.1097 34.0517 34.8824 35.4075C33.4796 43.8636 26.1755 50 17.594 50Z" fill="#5F5DF9"/>
<g opacity="0.5">
<path opacity="0.5" d="M12.0388 27.2492C10.6595 27.2492 9.63281 26.1286 9.63281 24.7492V17.5157C9.63281 13.0643 13.2222 9.4436 17.6892 9.4436C20.7378 9.4436 23.4808 11.1364 24.8758 13.8637C25.5027 15.0941 25.009 16.5988 23.7786 17.2257C22.5482 17.8527 21.0356 17.3668 20.4087 16.1364C19.8758 15.0862 18.7629 14.4358 17.603 14.4358C15.8946 14.4358 14.4526 15.8151 14.4526 17.5079V24.7414C14.4447 26.1286 13.4181 27.2492 12.0388 27.2492Z" fill="#5F5DF9"/>
</g>
</g>
<defs>
<clipPath id="clip0_1_3295">
<rect width="34.953" height="50" fill="white"/>
</clipPath>
</defs>
</svg>

<svg xmlns="http://www.w3.org/2000/svg" width="44.8" height="64" fill="none" viewBox="0 0 35 50"><g clip-path="url(#a)"><path fill="#5F5DF9" d="M17.594 50C7.924 50 0 42.147 0 32.5v-15C0 7.853 7.923 0 17.594 0c8.59 0 15.893 6.136 17.312 14.585a2.497 2.497 0 0 1-2.038 2.884 2.5 2.5 0 0 1-2.876-2.054C28.973 9.381 23.832 5 17.688 5 10.776 5 5.204 10.611 5.204 17.5v15c0 6.897 5.572 12.5 12.484 12.5C23.824 45 28.99 40.62 30 34.585a2.492 2.492 0 0 1 2.868-2.054c1.364.228 2.242 1.52 2.014 2.877C33.48 43.864 26.176 50 17.594 50Z"/><path fill="#5F5DF9" d="M12.039 27.25c-1.38 0-2.406-1.121-2.406-2.5v-7.234c0-4.452 3.59-8.072 8.056-8.072 3.049 0 5.792 1.692 7.187 4.42a2.507 2.507 0 0 1-4.467 2.273c-.533-1.05-1.646-1.701-2.806-1.701-1.708 0-3.15 1.38-3.15 3.072v7.233c-.008 1.388-1.035 2.508-2.414 2.508Z" opacity=".5"/></g><defs><clipPath id="a"><path fill="#fff" d="M0 0h34.953v50H0z"/></clipPath></defs></svg>
